X: 20
T: the Congress Reel
R: reel
Z: 2012 John Chambers <jc@trillian.mit.edu>
B: "100 Essential Irish Session Tunes" 1995 Dave Mallinson, ed.
M: 4/4
L: 1/8
K: Ador
Bd |\
"Am"eAAG A2Bd | eaaf "Em"gedg | "Am"eAcA eAcA | "G"BG~G2 Bcdg |\
"Am"eAAG A2Bd | eaaf "Em"gedB | "F"cBcd "Em"eged | "F"cA"G"BG "Am"A2 :|
|: Bd |\
"Am"eaag a2ag | eaag "Em"egdg | "G"egdg egdg | "Am"eaaf "Em"gedg |\
"Am"eaag a2ag | eaag "Em"egdB | "F"c3d "Em"e3d | "F"((3cBA) "G"BG "Am"A2 :|

%%sep 2 1 500
%%sep 1 1 500

